design-system/icons/comment--labs-icons.svg

<svg width="21" height="20" viewBox="0 0 21 20" fill="none" xmlns="http://www.w3.org/2000/svg">
<g clip-path="url(#clip0_234_206)">
<mask id="mask0_234_206" style="mask-type:alpha" maskUnits="userSpaceOnUse" x="0" y="0" width="24" height="24">
<rect x="0.666626" width="23.0833" height="23.0833" fill="currentColor"/>
</mask>
<g mask="url(#mask0_234_206)">
<path d="M6.16663 11.0448H15.1666C15.4027 11.0448 15.6007 10.9649 15.7604 10.8052C15.9201 10.6455 16 10.4476 16 10.2115C16 9.97536 15.9201 9.77744 15.7604 9.61772C15.6007 9.458 15.4027 9.37814 15.1666 9.37814H6.16663C5.93052 9.37814 5.7326 9.458 5.57288 9.61772C5.41315 9.77744 5.33329 9.97536 5.33329 10.2115C5.33329 10.4476 5.41315 10.6455 5.57288 10.8052C5.7326 10.9649 5.93052 11.0448 6.16663 11.0448ZM6.16663 8.25314H15.1666C15.4027 8.25314 15.6007 8.17327 15.7604 8.01355C15.9201 7.85383 16 7.65591 16 7.4198C16 7.18369 15.9201 6.98577 15.7604 6.82605C15.6007 6.66633 15.4027 6.58647 15.1666 6.58647H6.16663C5.93052 6.58647 5.7326 6.66633 5.57288 6.82605C5.41315 6.98577 5.33329 7.18369 5.33329 7.4198C5.33329 7.65591 5.41315 7.85383 5.57288 8.01355C5.7326 8.17327 5.93052 8.25314 6.16663 8.25314ZM6.16663 5.46147H15.1666C15.4027 5.46147 15.6007 5.38161 15.7604 5.22188C15.9201 5.06216 16 4.86425 16 4.62813C16 4.39202 15.9201 4.19411 15.7604 4.03438C15.6007 3.87466 15.4027 3.7948 15.1666 3.7948H6.16663C5.93052 3.7948 5.7326 3.87466 5.57288 4.03438C5.41315 4.19411 5.33329 4.39202 5.33329 4.62813C5.33329 4.86425 5.41315 5.06216 5.57288 5.22188C5.7326 5.38161 5.93052 5.46147 6.16663 5.46147ZM3.87496 14.7531C3.26774 14.7531 2.74788 14.5369 2.31538 14.1044C1.88288 13.672 1.66663 13.1522 1.66663 12.5448V2.37813C1.66663 1.77091 1.88288 1.25105 2.31538 0.81855C2.74788 0.38605 3.26774 0.1698 3.87496 0.1698H17.4583C18.0655 0.1698 18.5854 0.38605 19.0179 0.81855C19.4504 1.25105 19.6666 1.77091 19.6666 2.37813V15.9615C19.6666 16.4537 19.4409 16.7955 18.9895 16.9869C18.5382 17.1783 18.1389 17.1004 17.7916 16.7531L15.7916 14.7531H3.87496Z" fill="currentColor"/>
</g>
</g>
<defs>
<clipPath id="clip0_234_206">
<rect width="20" height="20" fill="white" transform="translate(0.666626)"/>
</clipPath>
</defs>
</svg>

<svg xmlns="http://www.w3.org/2000/svg" width="21" height="20" fill="none" viewBox="0 0 21 20"><g clip-path="url(#a)"><mask id="b" width="24" height="24" x="0" y="0" maskUnits="userSpaceOnUse" style="mask-type:alpha"><path fill="currentColor" d="M.667 0H23.75v23.083H.667z"/></mask><g mask="url(#b)"><path fill="currentColor" d="M6.167 11.045h9q.354 0 .593-.24.24-.24.24-.594a.8.8 0 0 0-.24-.593.8.8 0 0 0-.593-.24h-9a.8.8 0 0 0-.594.24.8.8 0 0 0-.24.593q0 .355.24.594.24.24.594.24m0-2.792h9q.354 0 .593-.24.24-.24.24-.593a.8.8 0 0 0-.24-.594.8.8 0 0 0-.593-.24h-9a.8.8 0 0 0-.594.24.8.8 0 0 0-.24.594q0 .354.24.594t.594.24m0-2.792h9q.354 0 .593-.24.24-.239.24-.593a.8.8 0 0 0-.24-.594.8.8 0 0 0-.593-.24h-9a.8.8 0 0 0-.594.24.8.8 0 0 0-.24.594q0 .354.24.594t.594.24m-2.292 9.292a2.13 2.13 0 0 1-1.56-.649 2.13 2.13 0 0 1-.648-1.56V2.379q0-.91.648-1.56A2.13 2.13 0 0 1 3.875.17h13.583q.911 0 1.56.649.649.648.649 1.56v13.583q0 .738-.678 1.025-.676.287-1.197-.234l-2-2z"/></g></g><defs><clipPath id="a"><path fill="#fff" d="M.667 0h20v20h-20z"/></clipPath></defs></svg>
